src/actions/24/format-text-bold.svg

<svg xmlns="http://www.w3.org/2000/svg" viewBox="0 0 24 24">
  <defs id="defs3051">
    <style type="text/css" id="current-color-scheme">
      .ColorScheme-Text {
        color:#2e3440;
      }
      </style>
  </defs>
 <path style="fill:currentColor;fill-opacity:1;stroke:none" 
     d="M 4.5 4 C 4.3286269 4 4.1646509 4.0248281 4 4.0488281 L 4 6 C 5.108 6 6 6.892 6 8 L 6 11 L 6 16 C 6 17.108 5.108 18 4 18 L 4 19.951172 C 4.1646509 19.975172 4.3286269 20 4.5 20 L 6 20 L 10 20 L 15 20 C 17.769995 20 20 17.77 20 15 C 20 12.7951 18.577117 10.953356 16.603516 10.285156 C 17.447639 9.6468564 18 8.6443 18 7.5 C 18 5.561 16.439 4 14.5 4 L 10 4 L 6 4 L 4.5 4 z M 10 6 L 12 6 C 13.108 6 14 6.892 14 8 C 14 9.108 13.108 10 12 10 L 10 10 L 10 6 z M 10 12 L 13 12 C 14.662 12 16 13.338 16 15 C 16 16.662 14.662 18 13 18 L 10 18 L 10 12 z "
     class="ColorScheme-Text"
     />
</svg>

<svg viewBox="0 0 24 24" xmlns="http://www.w3.org/2000/svg">
 <defs>
  <style type="text/css">.ColorScheme-Text {
        color:#2e3440;
      }</style>
 </defs>
 <path class="ColorScheme-Text" d="m4.5 4c-0.17137 0-0.33535 0.024828-0.5 0.048828v1.9512c1.108 0 2 0.892 2 2v3 5c0 1.108-0.892 2-2 2v1.9512c0.16465 0.024 0.32863 0.048828 0.5 0.048828h1.5 4 5c2.77 0 5-2.23 5-5 0-2.2049-1.4229-4.0466-3.3965-4.7148 0.84412-0.6383 1.3965-1.6409 1.3965-2.7852 0-1.939-1.561-3.5-3.5-3.5h-4.5-4-1.5zm5.5 2h2c1.108 0 2 0.892 2 2s-0.892 2-2 2h-2v-4zm0 6h3c1.662 0 3 1.338 3 3s-1.338 3-3 3h-3v-6z" fill="currentColor"/>
</svg>
